src/assets/icons/whatsapp.svg

<svg width="14" height="14" viewBox="0 0 14 14" fill="none" xmlns="http://www.w3.org/2000/svg">
<g id="whatsapp">
<g clip-path="url(#clip0_156_4477)">
<path id="Vector" d="M11.9031 2.03437C10.5941 0.721872 8.85019 0 6.99694 0C3.17232 0 0.0590734 3.11238 0.0590734 6.93788C0.0590734 8.15938 0.377573 9.35375 0.983948 10.4064L-0.000427246 14L3.67807 13.034C4.69044 13.587 5.83144 13.8775 6.99344 13.8775H6.99694C10.8189 13.8775 14.0004 10.7651 14.0004 6.93962C13.9996 5.08725 13.2121 3.34687 11.9031 2.03437ZM6.99694 12.7094C5.95919 12.7094 4.9442 12.4311 4.05957 11.9061L3.85045 11.781L1.66907 12.3532L2.25007 10.2253L2.1127 10.0065C1.53432 9.08775 1.23157 8.02813 1.23157 6.93788C1.23157 3.75988 3.81895 1.1725 7.00045 1.1725C8.54132 1.1725 9.9877 1.77275 11.0753 2.863C12.1629 3.95325 12.8314 5.4005 12.8288 6.94137C12.8279 10.122 10.1749 12.7094 6.99694 12.7094ZM10.1592 8.39038C9.9877 8.30288 9.13457 7.88375 8.97444 7.82775C8.81519 7.76825 8.6997 7.74025 8.5842 7.91525C8.46869 8.09025 8.13707 8.47787 8.03382 8.59687C7.93407 8.71237 7.83082 8.72812 7.65845 8.64062C6.63995 8.13138 5.97057 7.7315 5.29945 6.57825C5.12095 6.272 5.47795 6.29388 5.8087 5.6315C5.8647 5.516 5.83669 5.41625 5.79294 5.32875C5.74919 5.24125 5.40269 4.38813 5.25832 4.04163C5.11744 3.70388 4.97394 3.75112 4.86807 3.745C4.76832 3.73887 4.65282 3.73887 4.53645 3.73887C4.42007 3.73887 4.2337 3.78262 4.07357 3.95412C3.91432 4.12912 3.4672 4.54825 3.4672 5.40138C3.4672 6.2545 4.08932 7.07963 4.17332 7.19513C4.26082 7.31063 5.39482 9.06063 7.13607 9.814C8.23595 10.2891 8.66732 10.3294 9.21769 10.248C9.55194 10.1981 10.2423 9.82887 10.3867 9.42287C10.5302 9.01687 10.5302 8.6695 10.4864 8.59775C10.4471 8.51813 10.3307 8.47438 10.1592 8.39038Z" fill="black"/>
</g>
</g>
<defs>
<clipPath id="clip0_156_4477">
<rect width="14" height="14" fill="white"/>
</clipPath>
</defs>
</svg>

<svg xmlns="http://www.w3.org/2000/svg" fill="none" viewBox="0 0 14 14"><g clip-path="url(#a)"><path fill="#000" d="M11.903 2.034A6.88 6.88 0 0 0 6.997 0 6.946 6.946 0 0 0 .984 10.406L0 14l3.678-.966a6.9 6.9 0 0 0 3.315.843h.004c3.822 0 7.003-3.112 7.003-6.937 0-1.853-.788-3.593-2.097-4.906M6.997 12.71a5.76 5.76 0 0 1-2.937-.803l-.21-.125-2.18.572.58-2.128-.137-.218a5.75 5.75 0 0 1-.881-3.07A5.774 5.774 0 0 1 7 1.174c1.541 0 2.988.6 4.075 1.69s1.756 2.538 1.754 4.078c-.001 3.181-2.654 5.768-5.832 5.768m3.162-4.319c-.171-.087-1.024-.506-1.185-.562-.159-.06-.274-.088-.39.087a10 10 0 0 1-.55.682c-.1.115-.203.131-.376.044C6.64 8.13 5.971 7.73 5.3 6.578c-.178-.306.179-.284.51-.947.056-.115.028-.215-.016-.302-.044-.088-.39-.94-.535-1.287-.14-.338-.284-.29-.39-.297-.1-.006-.215-.006-.332-.006a.64.64 0 0 0-.462.215c-.16.175-.607.594-.607 1.447s.622 1.679.706 1.794c.088.116 1.222 1.866 2.963 2.619 1.1.475 1.531.515 2.082.434.334-.05 1.024-.42 1.169-.825.143-.406.143-.754.1-.825-.04-.08-.156-.124-.328-.208"/></g><defs><clipPath id="a"><path fill="#fff" d="M0 0h14v14H0z"/></clipPath></defs></svg>
